icon-themes/breeze_svg/cmd/32/addfield.svg

<?xml version="1.0" encoding="UTF-8" standalone="no"?>
<!-- Created with Inkscape (http://www.inkscape.org/) -->

<svg
   xmlns:dc="http://purl.org/dc/elements/1.1/"
   xmlns:cc="http://creativecommons.org/ns#"
   xmlns:rdf="http://www.w3.org/1999/02/22-rdf-syntax-ns#"
   xmlns:svg="http://www.w3.org/2000/svg"
   xmlns="http://www.w3.org/2000/svg"
   xmlns:sodipodi="http://sodipodi.sourceforge.net/DTD/sodipodi-0.dtd"
   xmlns:inkscape="http://www.inkscape.org/namespaces/inkscape"
   width="32"
   height="32"
   id="svg5453"
   version="1.1"
   inkscape:version="0.91 r13725"
   sodipodi:docname="addwatch.svg"
   viewBox="0 0 32 32">
  <defs
     id="defs5455" />
  <sodipodi:namedview
     id="base"
     pagecolor="#ffffff"
     bordercolor="#666666"
     borderopacity="1.0"
     inkscape:pageopacity="0"
     inkscape:pageshadow="2"
     inkscape:zoom="23.098815"
     inkscape:cx="12.479744"
     inkscape:cy="17.621499"
     inkscape:document-units="px"
     inkscape:current-layer="layer1"
     showgrid="true"
     fit-margin-top="0"
     fit-margin-left="0"
     fit-margin-right="0"
     fit-margin-bottom="0"
     inkscape:window-width="937"
     inkscape:window-height="1051"
     inkscape:window-x="33"
     inkscape:window-y="0"
     inkscape:window-maximized="0"
     inkscape:showpageshadow="false"
     borderlayer="true"
     showguides="true"
     inkscape:guide-bbox="true"
     inkscape:object-nodes="true"
     inkscape:snap-bbox="true"
     inkscape:snap-global="true">
    <inkscape:grid
       type="xygrid"
       id="grid4063" />
    <sodipodi:guide
       position="4,24"
       orientation="28,0"
       id="guide4280" />
    <sodipodi:guide
       position="13,4"
       orientation="0,28"
       id="guide4282" />
    <sodipodi:guide
       position="28,25"
       orientation="-28,0"
       id="guide4284" />
    <sodipodi:guide
       position="15,28"
       orientation="0,-28"
       id="guide4286" />
  </sodipodi:namedview>
  <metadata
     id="metadata5458">
    <rdf:RDF>
      <cc:Work
         rdf:about="">
        <dc:format>image/svg+xml</dc:format>
        <dc:type
           rdf:resource="http://purl.org/dc/dcmitype/StillImage" />
        <dc:title></dc:title>
      </cc:Work>
    </rdf:RDF>
  </metadata>
  <g
     inkscape:label="Capa 1"
     inkscape:groupmode="layer"
     id="layer1"
     transform="translate(-384.57143,-515.798)">
    <g
       id="g4318"
       transform="translate(384.57143,515.798)"
       style="fill:#4d4d4d;fill-opacity:0.94100001">
      <path
         id="path4320"
         d="m 4,4 0,1 3,0 0,22 -3,0 0,1 7,0 0,-1 -3,0 0,-22 3,0 0,-1 -7,0 z m 8,18 0,3 16,0 0,-3 -1,0 0,2 -14,0 0,-2 -1,0 z"
         inkscape:connector-curvature="0" />
    </g>
  </g>
</svg>

<svg xmlns="http://www.w3.org/2000/svg" viewBox="0 0 32 32">
 <path 
     style="fill:#4d4d4d" 
     d="M 4 4 L 4 5 L 7 5 L 7 27 L 4 27 L 4 28 L 11 28 L 11 27 L 8 27 L 8 5 L 11 5 L 11 4 L 4 4 z M 12 22 L 12 25 L 28 25 L 28 22 L 27 22 L 27 24 L 13 24 L 13 22 L 12 22 z "
     />
</svg>
